humanity-icon-theme/Humanity/mimes/22/text-html.svg

<?xml version="1.0" encoding="UTF-8" standalone="no"?>
<!-- Created with Inkscape (http://www.inkscape.org/) -->

<svg
   xmlns:dc="http://purl.org/dc/elements/1.1/"
   xmlns:cc="http://creativecommons.org/ns#"
   xmlns:rdf="http://www.w3.org/1999/02/22-rdf-syntax-ns#"
   xmlns:svg="http://www.w3.org/2000/svg"
   xmlns="http://www.w3.org/2000/svg"
   xmlns:xlink="http://www.w3.org/1999/xlink"
   xmlns:sodipodi="http://sodipodi.sourceforge.net/DTD/sodipodi-0.dtd"
   xmlns:inkscape="http://www.inkscape.org/namespaces/inkscape"
   width="22"
   height="22"
   id="svg3033"
   version="1.1"
   inkscape:version="0.47 r22583"
   sodipodi:docname="text-html.svg">
  <defs
     id="defs3035">
    <linearGradient
       x1="32.892288"
       y1="8.0590115"
       x2="36.358372"
       y2="5.4565363"
       id="linearGradient2425"
       xlink:href="#linearGradient8589"
       gradientUnits="userSpaceOnUse"
       gradientTransform="matrix(0.4778466,0,0,0.5524833,-0.6277461,9.9238715)" />
    <linearGradient
       id="linearGradient8589">
      <stop
         id="stop8591"
         style="stop-color:#fefefe;stop-opacity:1"
         offset="0" />
      <stop
         id="stop8593"
         style="stop-color:#cbcbcb;stop-opacity:1"
         offset="1" />
    </linearGradient>
    <linearGradient
       x1="24"
       y1="1.9999999"
       x2="24"
       y2="46.01725"
       id="linearGradient2429"
       xlink:href="#linearGradient3211"
       gradientUnits="userSpaceOnUse"
       gradientTransform="matrix(0.4545444,0,0,0.4651153,0.0909336,10.337229)" />
    <linearGradient
       id="linearGradient3211">
      <stop
         id="stop3213"
         style="stop-color:#ffffff;stop-opacity:1"
         offset="0" />
      <stop
         id="stop3215"
         style="stop-color:#ffffff;stop-opacity:0"
         offset="1" />
    </linearGradient>
    <radialGradient
       cx="92.090363"
       cy="102.70267"
       r="139.55859"
       fx="92.090363"
       fy="102.70267"
       id="radialGradient2432"
       xlink:href="#XMLID_8_"
       gradientUnits="userSpaceOnUse"
       gradientTransform="matrix(0.1702128,0,0,-0.1907226,0.1063822,33.716504)" />
    <radialGradient
       cx="102"
       cy="112.3047"
       r="139.55859"
       id="XMLID_8_"
       gradientUnits="userSpaceOnUse">
      <stop
         id="stop41"
         style="stop-color:#b7b8b9;stop-opacity:1"
         offset="0" />
      <stop
         id="stop47"
         style="stop-color:#ececec;stop-opacity:1"
         offset="0.17402567" />
      <stop
         id="stop49"
         style="stop-color:#fafafa;stop-opacity:0"
         offset="0.23907544" />
      <stop
         id="stop51"
         style="stop-color:#ffffff;stop-opacity:0"
         offset="0.30111277" />
      <stop
         id="stop53"
         style="stop-color:#fafafa;stop-opacity:0"
         offset="0.53130001" />
      <stop
         id="stop55"
         style="stop-color:#ebecec;stop-opacity:0"
         offset="0.84490001" />
      <stop
         id="stop57"
         style="stop-color:#e1e2e3;stop-opacity:0"
         offset="1" />
    </radialGradient>
    <linearGradient
       id="linearGradient3600">
      <stop
         id="stop3602"
         style="stop-color:#f4f4f4;stop-opacity:1"
         offset="0" />
      <stop
         id="stop3604"
         style="stop-color:#dbdbdb;stop-opacity:1"
         offset="1" />
    </linearGradient>
    <linearGradient
       id="linearGradient3104">
      <stop
         id="stop3106"
         style="stop-color:#aaaaaa;stop-opacity:1"
         offset="0" />
      <stop
         id="stop3108"
         style="stop-color:#c8c8c8;stop-opacity:1"
         offset="1" />
    </linearGradient>
    <linearGradient
       y2="47.013336"
       x2="25.132275"
       y1="0.98520643"
       x1="25.132275"
       gradientTransform="matrix(0.4857154,0,0,0.4780255,-0.6571704,9.2940497)"
       gradientUnits="userSpaceOnUse"
       id="linearGradient3029"
       xlink:href="#linearGradient3600"
       inkscape:collect="always" />
    <linearGradient
       y2="2.9062471"
       x2="-51.786404"
       y1="50.786446"
       x1="-51.786404"
       gradientTransform="matrix(0.3922135,0,0,0.4473607,28.199292,8.7613001)"
       gradientUnits="userSpaceOnUse"
       id="linearGradient3031"
       xlink:href="#linearGradient3104"
       inkscape:collect="always" />
  </defs>
  <sodipodi:namedview
     id="base"
     pagecolor="#ffffff"
     bordercolor="#666666"
     borderopacity="1.0"
     inkscape:pageopacity="0.0"
     inkscape:pageshadow="2"
     inkscape:zoom="11.197802"
     inkscape:cx="16"
     inkscape:cy="16"
     inkscape:current-layer="layer1"
     showgrid="true"
     inkscape:grid-bbox="true"
     inkscape:document-units="px"
     inkscape:window-width="603"
     inkscape:window-height="478"
     inkscape:window-x="417"
     inkscape:window-y="165"
     inkscape:window-maximized="0" />
  <metadata
     id="metadata3038">
    <rdf:RDF>
      <cc:Work
         rdf:about="">
        <dc:format>image/svg+xml</dc:format>
        <dc:type
           rdf:resource="http://purl.org/dc/dcmitype/StillImage" />
        <dc:title></dc:title>
      </cc:Work>
    </rdf:RDF>
  </metadata>
  <g
     id="layer1"
     inkscape:label="Layer 1"
     inkscape:groupmode="layer"
     transform="translate(0,-10)">
    <path
       d="m 2.4999608,10.499961 c 3.8955799,0 7.6044552,0 11.5000382,0 0.683368,0.237297 4.541325,3.12817 5.5,5.000039 0,5.729157 3.9e-5,10.270842 3.9e-5,16 l -17.0000772,0 c 0,-7.33336 0,-13.666681 0,-21.000039 z"
       id="path4160"
       style="fill:url(#linearGradient3029);fill-opacity:1;stroke:url(#linearGradient3031);stroke-width:0.99992162;stroke-linecap:butt;stroke-linejoin:round;stroke-miterlimit:4;stroke-opacity:1;stroke-dasharray:none;stroke-dashoffset:0;display:inline" />
    <path
       d="M 3.1702119,32 C 3.0764249,32 2.9999991,31.91437 2.9999991,31.809277 l 0,-20.598032 c 0,-0.105279 0.076426,-0.190722 0.1702128,-0.190722 3.5214555,0.05272 7.4238521,-0.07886 10.9410271,0.01312 l 4.838887,4.327137 0.04987,16.448492 C 18.999999,31.914366 18.923742,32 18.829785,32 L 3.1702119,32 z"
       id="path4191"
       style="fill:url(#radialGradient2432);fill-opacity:1" />
    <path
       d="m 18.5,15.677035 c 0,5.208306 0,10.614658 0,15.822965 -5,0 -9.9999997,0 -15.0000009,0 0,-6.66667 0,-13.333335 0,-20 3.4372614,0 6.9564989,0 10.3937609,0"
       id="path2435"
       style="opacity:0.6;fill:none;stroke:url(#linearGradient2429);stroke-width:0.99999988;stroke-linecap:butt;stroke-linejoin:miter;stroke-miterlimit:4;stroke-opacity:1;stroke-dasharray:none;stroke-dashoffset:0;display:inline" />
    <path
       d="m 13.075473,11 c 1.156303,0.328767 0.339059,4.614379 0.339059,4.614379 0,0 4.515388,-0.427737 5.60771,1.194996 1.489153,2.212256 -0.06822,-0.635172 -0.173447,-0.821697 C 18.092867,14.647632 14.982455,11.440592 13.803386,11.04647 13.715156,11.016977 13.51951,11 13.075473,11 z"
       id="path3370"
       style="opacity:0.2;fill:#000000;fill-opacity:1;fill-rule:evenodd;stroke:none;display:inline" />
    <path
       d="m 12.999999,11 c 1.526166,0 1,4 1,4 0,0 4.992074,-0.45326 4.992074,2 0,-0.597742 0.05575,-1.478434 -0.06407,-1.655933 C 18.088896,14.101061 15.184238,11.48218 14.129934,11.04647 14.043954,11.010938 13.444036,11 12.999999,11 z"
       id="path4474"
       style="fill:url(#linearGradient2425);fill-opacity:1;fill-rule:evenodd;stroke:none;display:inline" />
    <path
       style="opacity:0.6;color:#000000;fill:#ffffff;fill-opacity:1;fill-rule:evenodd;stroke:none;stroke-width:3;marker:none;visibility:visible;display:inline;overflow:visible;enable-background:accumulate"
       d="m 12,20 c 0,0 1,0 1,0 0,0 -2,6 -2,6 -0.281344,0 -1,0 -1,0 0,0 2,-6 2,-6 z"
       id="rect2888-1"
       sodipodi:nodetypes="ccccc" />
    <path
       style="opacity:0.6;fill:#ffffff;fill-opacity:1;stroke:none"
       d="m 16.513514,22.925333 -2.351351,-2.944 L 14.945945,19 18,22.925333 14.864865,27 14,26.104 16.513514,22.925333 z"
       id="path2882-04-0" />
    <path
       style="opacity:0.6;fill:#ffffff;fill-opacity:1;stroke:none"
       d="m 5.4864869,22.925333 2.3513502,-2.944 L 7.0540554,19 4,22.925333 7.1351354,27 8,26.104 5.4864869,22.925333 z"
       id="path2882-3" />
    <path
       style="opacity:0.4;fill:#666666;fill-opacity:1;stroke:none"
       d="m 5.4864869,21.925333 2.3513502,-2.944 L 7.0540554,18 4,21.925333 7.1351354,26 8,25.104 5.4864869,21.925333 z"
       id="path2882" />
    <path
       style="opacity:0.4;color:#000000;fill:#000000;fill-opacity:1;fill-rule:evenodd;stroke:none;stroke-width:3;marker:none;visibility:visible;display:inline;overflow:visible;enable-background:accumulate"
       d="m 12,19.000001 c 0.248241,0 0.751758,0 1,0 0,0 -2,6 -2,6 -0.248242,0 -0.751759,0 -1,0 0,0 2,-6 2,-6 z"
       id="rect2888"
       sodipodi:nodetypes="ccccc" />
    <path
       style="opacity:0.4;fill:#666666;fill-opacity:1;stroke:none"
       d="m 16.513514,21.925333 -2.351351,-2.944 L 14.945945,18 18,21.925333 14.864865,26 14,25.104 16.513514,21.925333 z"
       id="path2882-04" />
  </g>
</svg>

<?xml version="1.0" encoding="UTF-8" standalone="no"?>
<!-- Created with Inkscape (http://www.inkscape.org/) -->
<svg id="svg3033" xmlns:rdf="http://www.w3.org/1999/02/22-rdf-syntax-ns#" xmlns="http://www.w3.org/2000/svg" height="22" width="22" version="1.1" xmlns:cc="http://creativecommons.org/ns#" xmlns:xlink="http://www.w3.org/1999/xlink" xmlns:dc="http://purl.org/dc/elements/1.1/">
 <defs id="defs3035">
  <linearGradient id="linearGradient2425" y2="5.4565" gradientUnits="userSpaceOnUse" x2="36.358" gradientTransform="matrix(.47785 0 0 .55248 -.62775 9.9239)" y1="8.059" x1="32.892">
   <stop id="stop8591" style="stop-color:#fefefe" offset="0"/>
   <stop id="stop8593" style="stop-color:#cbcbcb" offset="1"/>
  </linearGradient>
  <linearGradient id="linearGradient2429" y2="46.017" gradientUnits="userSpaceOnUse" x2="24" gradientTransform="matrix(.45454 0 0 .46512 .090934 10.337)" y1="2" x1="24">
   <stop id="stop3213" style="stop-color:#fff" offset="0"/>
   <stop id="stop3215" style="stop-color:#fff;stop-opacity:0" offset="1"/>
  </linearGradient>
  <radialGradient id="radialGradient2432" gradientUnits="userSpaceOnUse" cy="102.7" cx="92.09" gradientTransform="matrix(.17021 0 0 -.19072 .10638 33.717)" r="139.56">
   <stop id="stop41" style="stop-color:#b7b8b9" offset="0"/>
   <stop id="stop47" style="stop-color:#ececec" offset=".17403"/>
   <stop id="stop49" style="stop-color:#fafafa;stop-opacity:0" offset=".23908"/>
   <stop id="stop51" style="stop-color:#fff;stop-opacity:0" offset=".30111"/>
   <stop id="stop53" style="stop-color:#fafafa;stop-opacity:0" offset=".53130"/>
   <stop id="stop55" style="stop-color:#ebecec;stop-opacity:0" offset=".84490"/>
   <stop id="stop57" style="stop-color:#e1e2e3;stop-opacity:0" offset="1"/>
  </radialGradient>
  <linearGradient id="linearGradient3029" y2="47.013" gradientUnits="userSpaceOnUse" y1=".98521" gradientTransform="matrix(.48572 0 0 .47803 -.65717 9.294)" x2="25.132" x1="25.132">
   <stop id="stop3602" style="stop-color:#f4f4f4" offset="0"/>
   <stop id="stop3604" style="stop-color:#dbdbdb" offset="1"/>
  </linearGradient>
  <linearGradient id="linearGradient3031" y2="2.9062" gradientUnits="userSpaceOnUse" y1="50.786" gradientTransform="matrix(.39221 0 0 .44736 28.199 8.7613)" x2="-51.786" x1="-51.786">
   <stop id="stop3106" style="stop-color:#aaa" offset="0"/>
   <stop id="stop3108" style="stop-color:#c8c8c8" offset="1"/>
  </linearGradient>
 </defs>
 <metadata id="metadata3038">
  <rdf:RDF>
   <cc:Work rdf:about="">
    <dc:format>image/svg+xml</dc:format>
    <dc:type rdf:resource="http://purl.org/dc/dcmitype/StillImage"/>
    <dc:title/>
   </cc:Work>
  </rdf:RDF>
 </metadata>
 <g id="layer1" transform="translate(0,-10)">
  <path id="path4160" style="stroke-linejoin:round;stroke:url(#linearGradient3031);stroke-width:.99992;fill:url(#linearGradient3029)" d="m2.5 10.5h11.5c0.68337 0.2373 4.5413 3.1282 5.5 5 0 5.7292 0.000039 10.271 0.000039 16h-17v-21z"/>
  <path id="path4191" style="fill:url(#radialGradient2432)" d="m3.1702 32c-0.0938 0-0.1702-0.086-0.1702-0.191v-20.598c0-0.10528 0.076426-0.19072 0.17021-0.19072 3.5215 0.05272 7.4239-0.07886 10.941 0.01312l4.8389 4.3271 0.04987 16.448c0 0.106-0.076 0.192-0.17 0.192h-15.66z"/>
  <path id="path2435" style="opacity:.6;stroke:url(#linearGradient2429);fill:none" d="m18.5 15.677v15.823h-15v-20h10.394"/>
  <path id="path3370" style="opacity:.2;fill-rule:evenodd" d="m13.075 11c1.1563 0.32877 0.33906 4.6144 0.33906 4.6144s4.5154-0.42774 5.6077 1.195c1.4892 2.2123-0.06822-0.63517-0.17345-0.8217-0.755-1.34-3.866-4.547-5.045-4.942-0.088-0.029-0.283-0.046-0.728-0.046z"/>
  <path id="path4474" style="fill:url(#linearGradient2425);fill-rule:evenodd" d="m13 11c1.5262 0 1 4 1 4s4.9921-0.45326 4.9921 2c0-0.59774 0.05575-1.4784-0.06407-1.6559-0.839-1.243-3.744-3.862-4.798-4.298-0.086-0.035-0.686-0.046-1.13-0.046z"/>
  <path id="rect2888-1" style="opacity:.6;color:#000000;fill-rule:evenodd;fill:#fff" d="m12 20h1l-2 6h-1l2-6z"/>
  <path id="path2882-04-0" style="opacity:.6;fill:#fff" d="m16.514 22.925-2.3514-2.944l0.783-0.981 3.054 3.925-3.135 4.075-0.865-0.896 2.514-3.179z"/>
  <path id="path2882-3" style="opacity:.6;fill:#fff" d="m5.4865 22.925 2.3514-2.944l-0.7838-0.981-3.0541 3.925 3.1351 4.075 0.8649-0.896-2.5135-3.179z"/>
  <path id="path2882" style="opacity:.4;fill:#666" d="m5.4865 21.925 2.3514-2.944l-0.7838-0.981-3.0541 3.925 3.1351 4.075 0.8649-0.896-2.5135-3.179z"/>
  <path id="rect2888" style="opacity:.4;color:#000000;fill-rule:evenodd" d="m12 19h1l-2 6h-1l2-6z"/>
  <path id="path2882-04" style="opacity:.4;fill:#666" d="m16.514 21.925-2.3514-2.944l0.783-0.981 3.054 3.925-3.135 4.075-0.865-0.896 2.514-3.179z"/>
 </g>
</svg>
